apps/scalable/htop.svg

<svg xmlns="http://www.w3.org/2000/svg" style="isolation:isolate" width="256" height="256"><defs><filter id="a" width="270.648" height="254.338" x="-7.32" y="2.95" filterUnits="userSpaceOnUse"><feGaussianBlur xmlns="http://www.w3.org/2000/svg" in="SourceGraphic" stdDeviation="4.294"/><feOffset xmlns="http://www.w3.org/2000/svg" dy="4" result="pf_100_offsetBlur"/><feFlood xmlns="http://www.w3.org/2000/svg" flood-opacity=".4"/><feComposite xmlns="http://www.w3.org/2000/svg" in2="pf_100_offsetBlur" operator="in" result="pf_100_dropShadow"/><feBlend xmlns="http://www.w3.org/2000/svg" in="SourceGraphic" in2="pf_100_dropShadow"/></filter></defs><path fill="#ECECEC" d="M165.685 11.947c74.055 0 84.639 10.557 84.639 84.544v59.251c0 73.986-10.584 84.543-84.639 84.543h-75.37c-74.055 0-84.639-10.557-84.639-84.543V96.491c0-73.987 10.584-84.544 84.639-84.544h75.37z" filter="url(#a)"/><g filter="url(#b)"><path fill="#234DB8" d="M64.047 58h-8.75v43.75h8.75v-4.375h-4.375v-35h4.375V58zM64.047 106.125h-8.75v43.75h8.75V145.5h-4.375v-35h4.375v-4.375zM64.047 154.25h-8.75V198h8.75v-4.375h-4.375v-35h4.375v-4.375M190.922 58h8.75v43.75h-8.75v-4.375h4.375v-35h-4.375V58zM190.922 106.125h8.75v43.75h-8.75V145.5h4.375v-35h-4.375v-4.375zM190.922 154.25h8.75V198h-8.75v-4.375h4.375v-35h-4.375v-4.375M72.797 58h-4.375v43.75h4.375V62.375"/><path fill="#76C22B" d="M86.797 58h-4.375v43.75h4.375V62.375M100.797 58h-4.375v43.75h4.375V62.375M158.547 58h-4.375v43.75h4.375V62.375M172.547 58h-4.375v43.75h4.375V62.375M186.547 58h-4.375v43.75h4.375V62.375M72.797 154.25h-4.375V198h4.375v-39.375M86.797 154.25h-4.375V198h4.375v-39.375M100.797 154.25h-4.375V198h4.375v-39.375M158.547 154.25h-4.375V198h4.375v-39.375M172.547 154.25h-4.375V198h4.375v-39.375M186.547 154.25h-4.375V198h4.375v-39.375M72.797 106.125h-4.375v43.75h4.375V110.5M86.797 106.125h-4.375v43.75h4.375V110.5M100.797 106.125h-4.375v43.75h4.375V110.5M158.547 106.125h-4.375v43.75h4.375V110.5M172.547 106.125h-4.375v43.75h4.375V110.5M186.547 106.125h-4.375v43.75h4.375V110.5M114.797 106.125h-4.375v43.75h4.375V110.5M128.797 106.125h-4.375v43.75h4.375V110.5M142.797 106.125h-4.375v43.75h4.375V110.5"/></g><defs><filter id="b" width="156.375" height="152" x="49.3" y="54" filterUnits="userSpaceOnUse"><feGaussianBlur xmlns="http://www.w3.org/2000/svg" in="SourceGraphic" stdDeviation=".429"/><feOffset xmlns="http://www.w3.org/2000/svg" dy="2" result="pf_100_offsetBlur"/><feFlood xmlns="http://www.w3.org/2000/svg" flood-opacity=".1"/><feComposite xmlns="http://www.w3.org/2000/svg" in2="pf_100_offsetBlur" operator="in" result="pf_100_dropShadow"/><feBlend xmlns="http://www.w3.org/2000/svg" in="SourceGraphic" in2="pf_100_dropShadow"/></filter></defs><g opacity=".4"><linearGradient id="c" x1=".517" x2=".517" y2="1"><stop offset="0%" stop-color="#fff"/><stop offset="12.5%" stop-opacity=".098" stop-color="#fff"/><stop offset="92.5%" stop-opacity=".098"/><stop offset="100%" stop-opacity=".498"/></linearGradient><path fill="none" stroke="url(#c)" stroke-linecap="round" stroke-linejoin="round" stroke-width="4.077" d="M165.685 11.947c74.055 0 84.639 10.557 84.639 84.544v59.251c0 73.986-10.584 84.543-84.639 84.543h-75.37c-74.055 0-84.639-10.557-84.639-84.543V96.491c0-73.987 10.584-84.544 84.639-84.544h75.37z" vector-effect="non-scaling-stroke"/></g></svg>

<svg xmlns="http://www.w3.org/2000/svg" style="isolation:isolate" width="256" height="256" viewBox="0 0 256 256">
 <defs>
  <filter id="wPn4GgaJyufPpjF1xJLeOtkVlD7lxp32" width="270.648" height="254.338" x="-7.32" y="2.95" filterUnits="userSpaceOnUse">
   <feGaussianBlur xmlns="http://www.w3.org/2000/svg" in="SourceGraphic" stdDeviation="4.294"/>
   <feOffset xmlns="http://www.w3.org/2000/svg" dx="0" dy="4" result="pf_100_offsetBlur"/>
   <feFlood xmlns="http://www.w3.org/2000/svg" flood-opacity=".4"/>
   <feComposite xmlns="http://www.w3.org/2000/svg" in2="pf_100_offsetBlur" operator="in" result="pf_100_dropShadow"/>
   <feBlend xmlns="http://www.w3.org/2000/svg" in="SourceGraphic" in2="pf_100_dropShadow" mode="normal"/>
  </filter>
 </defs>
 <g filter="url(#wPn4GgaJyufPpjF1xJLeOtkVlD7lxp32)">
  <path fill="#ECECEC" d="M 165.685 11.947 C 239.74 11.947 250.324 22.504 250.324 96.491 L 250.324 155.742 C 250.324 229.728 239.74 240.285 165.685 240.285 L 90.315 240.285 C 16.26 240.285 5.676 229.728 5.676 155.742 L 5.676 96.491 C 5.676 22.504 16.26 11.947 90.315 11.947 L 165.685 11.947 Z"/>
 </g>
 <g filter="url(#A5y0LaIRL4J0ZYH7o1x8LS1lymlJsIcP)">
  <path fill="#234DB8" d="M 64.047 58 L 55.297 58 L 55.297 101.75 L 64.047 101.75 L 64.047 97.375 L 59.672 97.375 L 59.672 62.375 L 64.047 62.375 L 64.047 58 L 64.047 58 L 64.047 58 L 64.047 58 L 64.047 58 Z"/>
  <path fill="#234DB8" d="M 64.047 106.125 L 55.297 106.125 L 55.297 149.875 L 64.047 149.875 L 64.047 145.5 L 59.672 145.5 L 59.672 110.5 L 64.047 110.5 L 64.047 106.125 L 64.047 106.125 L 64.047 106.125 L 64.047 106.125 L 64.047 106.125 Z"/>
  <path fill="#234DB8" d="M 64.047 154.25 L 55.297 154.25 L 55.297 198 L 64.047 198 L 64.047 193.625 L 59.672 193.625 L 59.672 158.625 L 64.047 158.625 L 64.047 154.25 L 64.047 154.25 L 64.047 154.25 L 64.047 154.25 L 64.047 154.25"/>
  <path fill="#234DB8" d="M 190.922 58 L 199.672 58 L 199.672 101.75 L 190.922 101.75 L 190.922 97.375 L 195.297 97.375 L 195.297 62.375 L 190.922 62.375 L 190.922 58 L 190.922 58 L 190.922 58 L 190.922 58 L 190.922 58 Z"/>
  <path fill="#234DB8" d="M 190.922 106.125 L 199.672 106.125 L 199.672 149.875 L 190.922 149.875 L 190.922 145.5 L 195.297 145.5 L 195.297 110.5 L 190.922 110.5 L 190.922 106.125 L 190.922 106.125 L 190.922 106.125 L 190.922 106.125 L 190.922 106.125 Z"/>
  <path fill="#234DB8" d="M 190.922 154.25 L 199.672 154.25 L 199.672 198 L 190.922 198 L 190.922 193.625 L 195.297 193.625 L 195.297 158.625 L 190.922 158.625 L 190.922 154.25 L 190.922 154.25 L 190.922 154.25 L 190.922 154.25 L 190.922 154.25"/>
  <path fill="#234DB8" d="M 72.797 58 L 68.422 58 L 68.422 101.75 L 72.797 101.75 L 72.797 97.375 L 72.797 97.375 L 72.797 62.375 L 72.797 62.375"/>
  <path fill="#76C22B" d="M 86.797 58 L 82.422 58 L 82.422 101.75 L 86.797 101.75 L 86.797 97.375 L 86.797 97.375 L 86.797 62.375 L 86.797 62.375"/>
  <path fill="#76C22B" d="M 100.797 58 L 96.422 58 L 96.422 101.75 L 100.797 101.75 L 100.797 97.375 L 100.797 97.375 L 100.797 62.375 L 100.797 62.375"/>
  <path fill="#76C22B" d="M 158.547 58 L 154.172 58 L 154.172 101.75 L 158.547 101.75 L 158.547 97.375 L 158.547 97.375 L 158.547 62.375 L 158.547 62.375"/>
  <path fill="#76C22B" d="M 172.547 58 L 168.172 58 L 168.172 101.75 L 172.547 101.75 L 172.547 97.375 L 172.547 97.375 L 172.547 62.375 L 172.547 62.375"/>
  <path fill="#76C22B" d="M 186.547 58 L 182.172 58 L 182.172 101.75 L 186.547 101.75 L 186.547 97.375 L 186.547 97.375 L 186.547 62.375 L 186.547 62.375"/>
  <path fill="#76C22B" d="M 72.797 154.25 L 68.422 154.25 L 68.422 198 L 72.797 198 L 72.797 193.625 L 72.797 193.625 L 72.797 158.625 L 72.797 158.625"/>
  <path fill="#76C22B" d="M 86.797 154.25 L 82.422 154.25 L 82.422 198 L 86.797 198 L 86.797 193.625 L 86.797 193.625 L 86.797 158.625 L 86.797 158.625"/>
  <path fill="#76C22B" d="M 100.797 154.25 L 96.422 154.25 L 96.422 198 L 100.797 198 L 100.797 193.625 L 100.797 193.625 L 100.797 158.625 L 100.797 158.625"/>
  <path fill="#76C22B" d="M 158.547 154.25 L 154.172 154.25 L 154.172 198 L 158.547 198 L 158.547 193.625 L 158.547 193.625 L 158.547 158.625 L 158.547 158.625"/>
  <path fill="#76C22B" d="M 172.547 154.25 L 168.172 154.25 L 168.172 198 L 172.547 198 L 172.547 193.625 L 172.547 193.625 L 172.547 158.625 L 172.547 158.625"/>
  <path fill="#76C22B" d="M 186.547 154.25 L 182.172 154.25 L 182.172 198 L 186.547 198 L 186.547 193.625 L 186.547 193.625 L 186.547 158.625 L 186.547 158.625"/>
  <path fill="#76C22B" d="M 72.797 106.125 L 68.422 106.125 L 68.422 149.875 L 72.797 149.875 L 72.797 145.5 L 72.797 145.5 L 72.797 110.5 L 72.797 110.5"/>
  <path fill="#76C22B" d="M 86.797 106.125 L 82.422 106.125 L 82.422 149.875 L 86.797 149.875 L 86.797 145.5 L 86.797 145.5 L 86.797 110.5 L 86.797 110.5"/>
  <path fill="#76C22B" d="M 100.797 106.125 L 96.422 106.125 L 96.422 149.875 L 100.797 149.875 L 100.797 145.5 L 100.797 145.5 L 100.797 110.5 L 100.797 110.5"/>
  <path fill="#76C22B" d="M 158.547 106.125 L 154.172 106.125 L 154.172 149.875 L 158.547 149.875 L 158.547 145.5 L 158.547 145.5 L 158.547 110.5 L 158.547 110.5"/>
  <path fill="#76C22B" d="M 172.547 106.125 L 168.172 106.125 L 168.172 149.875 L 172.547 149.875 L 172.547 145.5 L 172.547 145.5 L 172.547 110.5 L 172.547 110.5"/>
  <path fill="#76C22B" d="M 186.547 106.125 L 182.172 106.125 L 182.172 149.875 L 186.547 149.875 L 186.547 145.5 L 186.547 145.5 L 186.547 110.5 L 186.547 110.5"/>
  <path fill="#76C22B" d="M 114.797 106.125 L 110.422 106.125 L 110.422 149.875 L 114.797 149.875 L 114.797 145.5 L 114.797 145.5 L 114.797 110.5 L 114.797 110.5"/>
  <path fill="#76C22B" d="M 128.797 106.125 L 124.422 106.125 L 124.422 149.875 L 128.797 149.875 L 128.797 145.5 L 128.797 145.5 L 128.797 110.5 L 128.797 110.5"/>
  <path fill="#76C22B" d="M 142.797 106.125 L 138.422 106.125 L 138.422 149.875 L 142.797 149.875 L 142.797 145.5 L 142.797 145.5 L 142.797 110.5 L 142.797 110.5"/>
 </g>
 <defs>
  <filter id="A5y0LaIRL4J0ZYH7o1x8LS1lymlJsIcP" width="156.375" height="152" x="49.3" y="54" filterUnits="userSpaceOnUse">
   <feGaussianBlur xmlns="http://www.w3.org/2000/svg" in="SourceGraphic" stdDeviation=".429"/>
   <feOffset xmlns="http://www.w3.org/2000/svg" dx="0" dy="2" result="pf_100_offsetBlur"/>
   <feFlood xmlns="http://www.w3.org/2000/svg" flood-opacity=".1"/>
   <feComposite xmlns="http://www.w3.org/2000/svg" in2="pf_100_offsetBlur" operator="in" result="pf_100_dropShadow"/>
   <feBlend xmlns="http://www.w3.org/2000/svg" in="SourceGraphic" in2="pf_100_dropShadow" mode="normal"/>
  </filter>
 </defs>
 <g opacity=".4">
  <linearGradient id="_lgradient_42" x1=".517" x2=".517" y1="0" y2="1">
   <stop offset="0%" style="stop-color:rgb(255,255,255)"/>
   <stop offset="12.5%" stop-opacity=".098" style="stop-color:rgb(255,255,255)"/>
   <stop offset="92.5%" stop-opacity=".098" style="stop-color:rgb(0,0,0)"/>
   <stop offset="100%" stop-opacity=".498" style="stop-color:rgb(0,0,0)"/>
  </linearGradient>
  <path fill="none" stroke="url(#_lgradient_42)" stroke-linecap="round" stroke-linejoin="round" stroke-width="4.077" d="M 165.685 11.947 C 239.74 11.947 250.324 22.504 250.324 96.491 L 250.324 155.742 C 250.324 229.728 239.74 240.285 165.685 240.285 L 90.315 240.285 C 16.26 240.285 5.676 229.728 5.676 155.742 L 5.676 96.491 C 5.676 22.504 16.26 11.947 90.315 11.947 L 165.685 11.947 Z" vector-effect="non-scaling-stroke"/>
 </g>
</svg>
